packages/ffe-icons/icons/filled/sm/add_card.svg

<svg xmlns="http://www.w3.org/2000/svg" height="20" viewBox="0 -960 960 960" width="20"><path d="M778.001-226.001H684q-11.05 0-18.524-7.418-7.475-7.418-7.475-18.384 0-10.966 7.475-18.581 7.474-7.615 18.524-7.615h94.001V-372q0-11.05 7.418-18.524 7.418-7.475 18.384-7.475 10.966 0 18.581 7.475 7.615 7.474 7.615 18.524v94.001H924q11.05 0 18.524 7.418 7.475 7.418 7.475 18.384 0 10.966-7.475 18.581-7.474 7.615-18.524 7.615h-94.001V-132q0 11.05-7.418 18.524-7.418 7.475-18.384 7.475-10.966 0-18.581-7.475-7.615-7.474-7.615-18.524v-94.001ZM168-496.155h624v-111.69H168v111.69Zm12.309 284.154q-26.308 0-45.308-18.662t-19-45.686v-407.626q0-27.024 19-45.524t45.308-18.5h599.382q26.308 0 45.308 18.627 19 18.626 19 45.6v181.336q0 13.648-9.245 23.043-9.244 9.394-22.909 9.394h-42.844q-80 0-131.5 56.5t-51.5 133.5v35.844q0 13.665-9.244 22.909-9.245 9.245-22.91 9.245H180.309Z"/></svg>

<svg xmlns="http://www.w3.org/2000/svg" height="20" viewBox="0 -960 960 960" width="20"><path d="M778-226h-94q-11.05 0-18.52-7.42-7.48-7.42-7.48-18.38 0-10.97 7.48-18.58Q672.95-278 684-278h94v-94q0-11.05 7.42-18.52 7.42-7.48 18.38-7.48 10.97 0 18.58 7.48Q830-383.05 830-372v94h94q11.05 0 18.52 7.42 7.48 7.42 7.48 18.38 0 10.97-7.48 18.58Q935.05-226 924-226h-94v94q0 11.05-7.42 18.52-7.42 7.48-18.38 7.48-10.97 0-18.58-7.48Q778-120.95 778-132v-94ZM168-496.16h624v-111.68H168v111.68ZM180.31-212Q154-212 135-230.66q-19-18.66-19-45.69v-407.62q0-27.03 19-45.53t45.31-18.5h599.38Q806-748 825-729.37q19 18.62 19 45.6v181.33q0 13.65-9.25 23.05-9.24 9.39-22.91 9.39H769q-80 0-131.5 56.5T586-280v35.84q0 13.67-9.24 22.91-9.25 9.25-22.91 9.25H180.31Z"/></svg>
